outputs/icons/action/pending_round.svg

<svg xmlns="http://www.w3.org/2000/svg" width="1200" height="1200" fill="none"><g clip-path="url(#a)"><path fill="#000" d="M600 100c-276 0-500 224-500 500s224 500 500 500 500-224 500-500-224-500-500-500M350 675c-41.5 0-75-33.5-75-75s33.5-75 75-75 75 33.5 75 75-33.5 75-75 75m250 0c-41.5 0-75-33.5-75-75s33.5-75 75-75 75 33.5 75 75-33.5 75-75 75m250 0c-41.5 0-75-33.5-75-75s33.5-75 75-75 75 33.5 75 75-33.5 75-75 75"/></g><defs><clipPath id="a"><path fill="#fff" d="M0 0h1200v1200H0z"/></clipPath></defs></svg>

<svg width="1200" height="1200" viewBox="0 0 1200 1200" fill="none" xmlns="http://www.w3.org/2000/svg"><g clip-path="url(#clip0_223_1906)"><path d="M600 100C324 100 100 324 100 600C100 876 324 1100 600 1100C876 1100 1100 876 1100 600C1100 324 876 100 600 100ZM350 675C308.5 675 275 641.5 275 600C275 558.5 308.5 525 350 525C391.5 525 425 558.5 425 600C425 641.5 391.5 675 350 675ZM600 675C558.5 675 525 641.5 525 600C525 558.5 558.5 525 600 525C641.5 525 675 558.5 675 600C675 641.5 641.5 675 600 675ZM850 675C808.5 675 775 641.5 775 600C775 558.5 808.5 525 850 525C891.5 525 925 558.5 925 600C925 641.5 891.5 675 850 675Z" fill="#1D1E23"/></g><defs><clipPath id="clip0_223_1906"><path width="24" fill="white" d="M0 0H1200V1200H0V0z"/></clipPath></defs></svg>
